**kern	**kern	**dynam
*part1	*part1	*part1
*staff2	*staff1	*
*I"Piano	*	*
*clefG2	*clefG2	*
*k[f#c#]	*k[f#c#]	*
=1	=1	=1
8BL 8e	8gL 8b 8ee	.
8A 8e	8g 8a 8ee	.
8BJ 8e	8gJ 8b 8ee	.
=	=	=
8AL 8d	8f#L 8a 8dd	.
8B 8d	8f# 8b 8dd	.
8AJ 8d	8f#J 8a 8dd	.
=	=	=
8BL 8d	8f#L 8b 8dd	.
8A 8d	8f# 8a 8dd	.
8BJ 8d	8f#J 8b 8dd	.
=	=	=
8GL 8d	8gL 8b 8dd	<
8G 8e	8g 8b 8ee	.
8GJ 8d	8gJ 8b 8dd	.
=	=	=
8GL 8e	8gL 8b 8ee	.
8G 8d	8g 8b 8dd	.
8GJ 8e	8gJ 8b 8ee	.
=	=	=
8AL 8e	8gL 8cc# 8ee	.
8A 8f#	8g 8cc# 8ff#	.
8AJ 8e	8gJ 8cc# 8ee	.
=	=	=
8AL 8f#	8gL 8cc# 8ff#	.
8A 8e	8g 8cc# 8ee	.
8AJ 8f#	8gJ 8cc# 8ff#	[
=	=	=
*-	*-	*-
!!!system-decoration: {(s1,s2)}
